X:120
M:2/4
L:1/8
Q:1/4=140
K:A
cd ed/c/|ag/f/ ee|dcBA|GA BE|cd ed/c/|ag/f/ ee|dcBA|c/B/A/G/ A2:|

